public/images/k8/k-proxy.svg

<?xml version="1.0" encoding="UTF-8" standalone="no"?>
<!-- Created with Inkscape (http://www.inkscape.org/) -->

<svg
   xmlns:dc="http://purl.org/dc/elements/1.1/"
   xmlns:cc="http://creativecommons.org/ns#"
   xmlns:rdf="http://www.w3.org/1999/02/22-rdf-syntax-ns#"
   xmlns:svg="http://www.w3.org/2000/svg"
   xmlns="http://www.w3.org/2000/svg"
   xmlns:sodipodi="http://sodipodi.sourceforge.net/DTD/sodipodi-0.dtd"
   xmlns:inkscape="http://www.inkscape.org/namespaces/inkscape"
   width="17.26683mm"
   height="16.833418mm"
   viewBox="0 0 17.26683 16.833418"
   version="1.1"
   id="svg3945"
   inkscape:version="0.92.2 2405546, 2018-03-11"
   sodipodi:docname="k-proxy.svg">
  <defs
     id="defs3939" />
  <sodipodi:namedview
     id="base"
     pagecolor="#ffffff"
     bordercolor="#666666"
     borderopacity="1.0"
     inkscape:pageopacity="0.0"
     inkscape:pageshadow="2"
     inkscape:zoom="11.2"
     inkscape:cx="-1.7634"
     inkscape:cy="20.712983"
     inkscape:document-units="mm"
     inkscape:current-layer="layer1"
     showgrid="false"
     inkscape:window-width="2560"
     inkscape:window-height="1556"
     inkscape:window-x="0"
     inkscape:window-y="0"
     inkscape:window-maximized="1"
     fit-margin-top="0"
     fit-margin-left="0"
     fit-margin-right="0"
     fit-margin-bottom="0" />
  <metadata
     id="metadata3942">
    <rdf:RDF>
      <cc:Work
         rdf:about="">
        <dc:format>image/svg+xml</dc:format>
        <dc:type
           rdf:resource="http://purl.org/dc/dcmitype/StillImage" />
        <dc:title></dc:title>
      </cc:Work>
    </rdf:RDF>
  </metadata>
  <g
     inkscape:label="Calque 1"
     inkscape:groupmode="layer"
     id="layer1"
     transform="translate(-0.41439,-0.352822)">
    <path
       id="path1998"
       d="M 0.41439,11.178444 2.12436,3.686879 9.0478,0.352822 l 6.92343,3.334057 1.70999,7.491565 -4.79123,6.007796 H 5.2056 Z"
       inkscape:connector-curvature="0"
       style="fill:#326ce5;fill-opacity:1;fill-rule:evenodd;stroke:none;stroke-width:0.26458332;stroke-linecap:square;stroke-miterlimit:10" />
    <text
       xml:space="preserve"
       style="font-style:normal;font-weight:normal;font-size:10.58333302px;line-height:6.61458349px;font-family:Sans;letter-spacing:0px;word-spacing:0px;fill:#eeeeee;fill-opacity:1;stroke:none;stroke-width:0.26458332px;stroke-linecap:butt;stroke-linejoin:miter;stroke-opacity:1"
       x="9.0174322"
       y="16.0322"
       id="text2002"><tspan
         sodipodi:role="line"
         id="tspan2000"
         x="9.0174322"
         y="16.0322"
         style="font-style:normal;font-variant:normal;font-weight:normal;font-stretch:normal;font-size:2.82222223px;font-family:Arial;-inkscape-font-specification:'Arial, Normal';font-variant-ligatures:normal;font-variant-caps:normal;font-variant-numeric:normal;font-feature-settings:normal;text-align:center;writing-mode:lr-tb;text-anchor:middle;fill:#eeeeee;fill-opacity:1;stroke-width:0.26458332px">k-proxy</tspan></text>
    <path
       inkscape:connector-curvature="0"
       style="opacity:1;fill:#eeeeee;fill-opacity:1;stroke:#eeeeee;stroke-width:0;stroke-miterlimit:10;stroke-dasharray:none;stroke-dashoffset:11.23642349;stroke-opacity:1"
       d="m 9.02969,3.855351 c -0.13833,-0.0044 -3.9951,1.891873 -4.04553,1.989119 -0.12117,0.233682 -0.9989,4.281826 -0.94731,4.369073 0.03,0.05065 0.66219,0.851861 1.40458,1.780327 l 1.34982,1.688013 2.22119,9.18e-4 2.22164,9.18e-4 1.41321,-1.765731 1.41365,-1.765228 -0.49479,-2.168575 C 13.29395,6.791446 13.05049,5.795598 13.02562,5.771608 12.95612,5.704728 9.10466,3.857814 9.02969,3.855393 Z M 9.22583,4.803104 10.13476,5.066681 9.22583,5.330257 8.31691,5.066681 Z M 8.31691,5.167624 9.16803,5.42085 9.16403,6.604139 8.31722,6.134792 Z m 1.81785,0 V 6.134792 L 9.28797,6.604139 9.28397,5.42085 Z M 7.93728,6.782302 8.84622,7.045878 7.93728,7.309455 7.02836,7.045878 Z m 2.2087,0 0.90894,0.263576 -0.90894,0.263577 -0.90893,-0.263577 z m -3.11762,0.36452 0.85112,0.252792 -0.004,1.18329 -0.84682,-0.468915 z m 1.81786,0 v 0.967167 l -0.84681,0.468915 -0.004,-1.18329 z m 0.39083,0 0.85113,0.252792 -0.004,1.18329 -0.84682,-0.468915 z m 1.81787,0 V 8.113989 L 10.2081,8.582904 10.2041,7.399614 Z M 7.60526,8.661849 c 0.27063,0.0096 0.0611,0.281909 0.36841,0.427935 C 8.30142,9.245548 8.36907,8.85443 8.57501,9.153194 8.781,9.45196 8.39162,9.376433 8.42058,9.73815 c 0.029,0.361719 0.40165,0.224859 0.24589,0.552607 -0.15575,0.327746 -0.28532,-0.04764 -0.58409,0.158317 -0.29874,0.205957 0.006,0.460208 -0.35546,0.489192 C 7.36518,10.967246 7.62542,10.667819 7.29768,10.512058 6.96993,10.356293 6.9023,10.746979 6.69634,10.448208 6.49038,10.149441 6.88017,10.225398 6.85119,9.86368 6.82219,9.501962 6.44954,9.638821 6.60532,9.311076 6.76107,8.983327 6.8902,9.358716 7.18897,9.152756 7.48776,8.9468 7.18297,8.692548 7.54488,8.663566 c 0.0225,-0.0018 0.0424,-0.0023 0.0604,-0.0018 z m 2.33596,0.362794 c 0.48335,0.01358 0.0146,0.467218 0.45596,0.664766 0.44144,0.197548 0.46714,-0.454103 0.79937,-0.102669 0.33221,0.351432 -0.31997,0.34064 -0.14753,0.792455 0.17243,0.451813 0.65163,0.0092 0.63802,0.49264 -0.0137,0.483411 -0.46723,0.01456 -0.66477,0.455977 -0.19755,0.441412 0.4541,0.467143 0.10266,0.799357 -0.35141,0.332212 -0.34021,-0.319974 -0.79202,-0.147534 -0.45183,0.172437 -0.009,0.65161 -0.49265,0.638019 C 9.35687,12.604074 9.82566,12.150438 9.3843,11.95289 8.94289,11.755339 8.91672,12.406991 8.58451,12.055559 8.2523,11.704127 8.90449,11.715349 8.73205,11.263534 8.5596,10.811719 8.08042,11.254334 8.09402,10.770892 8.10772,10.287484 8.56123,10.755902 8.7588,10.314487 8.95632,9.873073 8.30469,9.847344 8.65611,9.51513 9.00756,9.182916 8.99676,9.835101 9.44857,9.662664 9.90041,9.490224 9.45757,9.011053 9.94122,9.024643 Z M 7.6264,9.278298 c -0.29365,9e-5 -0.53161,0.238249 -0.53145,0.531898 8e-5,0.293481 0.23797,0.531377 0.53145,0.531467 0.29366,1.59e-4 0.53182,-0.23781 0.5319,-0.531467 C 8.15846,9.516371 7.92023,9.278139 7.6264,9.278298 Z m 2.26436,0.480563 c -0.58689,-1.96e-4 -1.06271,0.475615 -1.06252,1.062503 5e-5,0.586719 0.4758,1.062267 1.06252,1.062071 0.58654,-5.8e-5 1.06201,-0.475531 1.06206,-1.062071 1.9e-4,-0.586708 -0.47535,-1.062445 -1.06206,-1.062503 z"
       id="path2004"
       sodipodi:nodetypes="cccccccccccccccccccccccccccccccccccccccccccccccccccccccccccccccccccccccccccccccccccscccccccccccccccc" />
  </g>
</svg>

<svg xmlns="http://www.w3.org/2000/svg" width="65.26" height="63.622" viewBox="0 0 17.267 16.833"><path d="m.414 11.178 1.71-7.491L9.048.353l6.923 3.334 1.71 7.491-4.791 6.008H5.206Z" style="fill:#326ce5;fill-opacity:1;fill-rule:evenodd;stroke:none;stroke-width:.26458332;stroke-linecap:square;stroke-miterlimit:10" transform="translate(-.414 -.353)"/><text xml:space="preserve" x="9.017" y="16.032" style="font-style:normal;font-weight:400;font-size:10.58333302px;line-height:6.61458349px;font-family:Sans;letter-spacing:0;word-spacing:0;fill:#eee;fill-opacity:1;stroke:none;stroke-width:.26458332px;stroke-linecap:butt;stroke-linejoin:miter;stroke-opacity:1" transform="translate(-.414 -.353)"><tspan x="9.017" y="16.032" style="font-style:normal;font-variant:normal;font-weight:400;font-stretch:normal;font-size:2.82222223px;font-family:Arial;-inkscape-font-specification:&quot;Arial, Normal&quot;;font-variant-ligatures:normal;font-variant-caps:normal;font-variant-numeric:normal;font-feature-settings:normal;text-align:center;writing-mode:lr-tb;text-anchor:middle;fill:#eee;fill-opacity:1;stroke-width:.26458332px">k-proxy</tspan></text><path d="M9.03 3.855c-.139-.004-3.995 1.892-4.046 1.99-.121.233-.999 4.281-.947 4.369.03.05.662.851 1.404 1.78l1.35 1.688h2.221l2.222.002 1.413-1.766 1.414-1.765-.495-2.169c-.272-1.193-.516-2.188-.54-2.212-.07-.067-3.921-1.914-3.996-1.917Zm.196.948.909.264-.91.263-.908-.263Zm-.91.365.852.253-.004 1.183-.847-.47Zm1.819 0v.967l-.847.47-.004-1.184ZM7.937 6.782l.91.264-.91.263-.909-.263Zm2.209 0 .909.264-.909.263-.909-.263zm-3.118.365.851.253-.004 1.183-.846-.469zm1.818 0v.967L8 8.583 7.995 7.4zm.391 0 .851.253-.004 1.183-.847-.469zm1.818 0v.967l-.847.469-.004-1.183Zm-3.45 1.515c.27.01.061.282.369.428.327.156.395-.236.601.063.206.299-.183.223-.154.585.029.362.401.225.245.553-.155.328-.285-.048-.584.158-.298.206.006.46-.355.49-.362.028-.102-.271-.43-.427-.327-.156-.395.235-.6-.064-.207-.299.183-.223.154-.584-.029-.362-.401-.225-.246-.553.156-.328.285.048.584-.158.299-.206-.006-.46.356-.49a.56.56 0 0 1 .06-.001zm2.336.363c.484.013.015.467.456.664.442.198.467-.454.8-.102.332.351-.32.34-.148.792.172.452.652.01.638.493-.014.483-.467.014-.665.456-.197.441.454.467.103.8-.351.331-.34-.32-.792-.148-.452.172-.01.651-.493.638-.483-.014-.014-.468-.456-.665-.441-.198-.467.454-.8.103-.332-.352.32-.34.148-.792-.172-.452-.652-.01-.638-.493.014-.484.467-.015.665-.457.197-.44-.454-.467-.103-.799.352-.332.34.32.793.148.451-.173.009-.652.492-.638Zm-2.315.253a.532.532 0 1 0 0 1.064.532.532 0 0 0 0-1.064Zm2.265.48a1.062 1.062 0 1 0-.001 2.125 1.062 1.062 0 0 0 0-2.124z" style="opacity:1;fill:#eee;fill-opacity:1;stroke:#eee;stroke-width:0;stroke-miterlimit:10;stroke-dasharray:none;stroke-dashoffset:11.23642349;stroke-opacity:1" transform="translate(-.414 -.353)"/></svg>
